app/dist/common/images/national-express-plc.svg

<svg height="18" viewBox="0 0 18 18" width="18" xmlns="http://www.w3.org/2000/svg"><path d="m0 0h18v18h-18z" fill="#f0f3fa"/><path d="m4 11.76c0 .13-.1.24-.42.24s-.58-.1-.58-.24v-3.52c0-1.38 1.51-2.24 3-2.24 1.48 0 3 .86 3 2.24v3.52c0 .13-.26.24-.58.24-.33 0-.42-.1-.42-.24v-3.52c0-.48-.82-1.24-2.01-1.24s-1.99.76-1.99 1.24z" fill="#0056a4"/><path d="m13.62 7.78a1.97 1.97 0 0 0 -1.62-.78c-1.18 0-2 .77-2 1.25v.74l3.68-1.11zm-4.62 2.02v-1.56c0-1.38 1.5-2.24 2.98-2.24 1.47 0 2.97.86 2.97 2.24 0 .17-.16.45-.4.53l-4.29 1.35.07.1c.26.35.84.78 1.67.78.9 0 1.58-.55 1.85-1.04l.12-.2c.07-.12.35-.1.63.04s.45.36.39.47l-.1.18a3.34 3.34 0 0 1 -2.93 1.55c-1.44 0-2.93-.86-2.96-2.21z" fill="#eb0029"/></svg>

<!-- by TradingView --><svg width="18" height="18" viewBox="0 0 18 18" xmlns="http://www.w3.org/2000/svg"><path fill="#F0F3FA" d="M0 0h18v18H0z"/><path d="M4 11.76c0 .13-.1.24-.42.24-.32 0-.58-.1-.58-.24V8.24C3 6.86 4.51 6 6 6c1.48 0 3 .86 3 2.24v3.52c0 .13-.26.24-.58.24-.33 0-.42-.1-.42-.24V8.24C8 7.76 7.18 7 5.99 7S4 7.76 4 8.24v3.52Z" fill="#0056A4"/><path d="M13.62 7.78A1.97 1.97 0 0 0 12 7c-1.18 0-2 .77-2 1.25v.74l3.68-1.11-.06-.1ZM9 9.8V8.24C9 6.86 10.5 6 11.98 6c1.47 0 2.97.86 2.97 2.24 0 .17-.16.45-.4.53l-4.29 1.35.07.1c.26.35.84.78 1.67.78.9 0 1.58-.55 1.85-1.04l.12-.2c.07-.12.35-.1.63.04s.45.36.39.47l-.1.18A3.34 3.34 0 0 1 11.96 12c-1.44 0-2.93-.86-2.96-2.21Z" fill="#EB0029"/></svg>
